X:1
T:Vexilla Regis
T:Vexilla Regis
T:Francesco Feroci
T:©cpdl
T:©cpdl
T:©cpdl
T:©cpdl
T:©cpdl
T:©cpdl
C:Francesco Feroci
Z:©cpdl
%%score [ 1 2 3 ]
L:1/8
Q:1/4=120
M:3/4
K:Dmin
V:1 treble-8 nm="Tenor 1" snm="T 1"
V:2 treble-8 nm="Tenor 2" snm="T 2"
V:3 bass nm="Bass" snm="B"
V:1
 d2 d2 d2- | d2 B2 A2 | d4 c2 | d2 A2 d2 | B2 c2 d2- | d2 c3 c | B4 d2- | d2 d2 d2 | c4 d2- | %9
w: 1.Ve- xil- la|_ Re- gis|prod- e-|unt; Ful- get|Cru- cis my-|* ste- ri-|um, Qua|_ vi- ta|mor- tem|
 (dc) B2 B2 | A4 d2- | d2 d2 d2 | _e4 d2 | c2 c2 c2 | c3 d B2- | Bc A2 A2 | =B6 || z8 | z8 | z8 | %20
w: _ _ per- tu-|lit, et|_ mor- te|vi- tam,|et mor- te|vi- * tam|_ _ pro- tu-|lit.||||
 z8 | z8 | z8 | z10 | z8 | z8 | z8 | z4 | z8 | z8 | z8 | z8 | z4 ||[M:2/2] z8 | D2 G4 F2 | %35
w: ||||||||||||||3.Im- ple- ta|
 B2 B2 A3 A | G2 d3 d c2 | B2 A2 B3 B | A2 d2 c2 (BA) | B2 B2 c3 c | B2 d2 d4 | c4 z2 F2- | %42
w: sunt quae con- ci-|nit Da- vid fi-|de- li car- mi-|ne, Di- cen- do _|na- ti- o- ni-|bus Re- gna-|vit, a|
 F2 B3 A G2- | G2 c4 B2 | A2 d4 c2- | c2 B2 A4 | G8 || z8 | z8 | z8 | z8 | z8 | z8 | z10 | z8 | %55
w: _ li- * gno|_ De- *|us. a li-|* gno De-|us.|||||||||
 z8 | z8 | z4 | z8 | z8 | z6 | z8 | z4 ||[M:2/2] d4 d2 d2 | d2 (cB) A3 A | A2 d3 d d2- | %66
w: ||||||||5.Be- a- ta,|cu- jus _ bra- chi-|is Pre- ti- um|
 d2 _ed (c3 B) | A2 B4 A2 | B2 d2 c2 (cd) | _e2 e2 d4- | d2 c2 d2 A2 | B2 A2 G2 ^F2 | %72
w: _ pe- * pen- *|dit sae- cu-|li: Sta- te- ra _|fa- cta cor-|* po- ris, Tu-|lit- que prae- dam|
 z2 d2 _e2 d2 | c2 =B2 z2 _e2 | d6 d2 | d8 || z8 | z8 | z8 | z8 | z8 | z8 | z10 | z8 | z8 | z8 | %86
w: Tu- lit- que|prae- dam tar-|* ta-|ri.|||||||||||
 z4 | z8 | z8 | z6 | z8 | z4 ||[M:3/4] A2 A2 B2 | c4 d2 | G2 _e3 e | d4 d2- | d_e d2 c2 | B4 A2 | %98
w: ||||||7.Te, fons sa-|lu- *|tis Tri- ni-|tas, Col-|* * lau- det|om- nis|
 d4 ^c2 | d2 d2 d2 | d2 d2 (_ed) | c3 c c2 | d2 B2 c2 | B2 A4 | _e4 d2 | c4 B2- | B2 A2 A2 | =B6 || %108
w: spi- ri-|tus: Qui- bus|Cru- cis vi- *|cto- ri- am|Lar- gi- *|* ris|ad- de|ad- de|_ prae- mi-|um.|
 _e6 | d6 |] %110
w: A-|men|
V:2
 B2 B2 A2 | (B4 c2) | BA G2 G2 | ^F2 F2 F2 | G2 A2 B2- | B2 A3 A | B4 B2- | B2 B2 B2 | A4 A2- | %9
w: 1.Ve- xil- la|Re- *|gis _ prod- e-|unt; Ful- get|Cru- cis my-|* ste- ri-|um, Qua|_ vi- ta|mor- tem|
 A2 G3 G | ^F4 A2- | A2 A2 =B2 | c4 G2 | G2 A2 G2 | ^F4 G2- | (GA) ^F2 F2 | G6 || %17
w: _ per- tu-|lit, et|_ mor- te|vi- tam,|et mor- te|vi- tam|_ _ pro- tu-|lit.|
 !stemless!F2 (!stemless!G2 !stemless!A2) !stemless!B2 | %18
w: 2.Quae vul- * ne-|
 (!stemless!A2 !stemless!G2 !stemless!F2) !stemless!G2 | %19
w: ra- * * ta|
 (!stemless!G2 !stemless!A2 !stemless!G2) !stemless!F2 | (!stemless!E4 !stemless!D4) | %21
w: lan- * * ce-|ae _|
 !stemless!G2 !stemless!G2 !stemless!A2 (!stemless!F2 | %22
w: Mu- cro- ne di-|
 !stemless!D2) !stemless!F2 (!stemless!E2 !stemless!F2) | %23
w: * ro cri- *|
 !stemless!D2 (!stemless!C4 !stemless!D4) | !stemless!D2 !stemless!D2 !stemless!F2 (!stemless!D2 | %25
w: mi- num _|Ut nos la- va-|
 !stemless!C2) !stemless!F2 (!stemless!F2 !stemless!G2 | !stemless!A2) !stemless!G2 (!stemless!G4 | %27
w: * ret sor- *|* di- bus,|
 !stemless!F4) | !stemless!F2 (!stemless!F2 !stemless!A2 !stemless!B2 | %29
w: _|Ma- na- * *|
 !stemless!A2 !stemless!G2) !stemless!A2 (!stemless!F2 | %30
w: * * vit un-|
 !stemless!D2) !stemless!F2 !stemless!F2 (!stemless!E2 | !stemless!F2) !stemless!D2 (!stemless!C4 | %32
w: * da et san-|* gui- ne.|
 !stemless!D4) ||[M:2/2] D2 G4 F2 | B2 B2 A3 A | D2 G3 G F2 | _E2 D2 E3 E | D4 z2 G2 | %38
w: _|3.Im- ple- ta|sunt quae con- ci-|nit Da- vid fi-|de- li car- mi-|ne, Di-|
 F2 (_ED) E2 F2 | GA B4 A2 | B2 B2 B4 | F2 F2 (F3 _E) | D2 B,2 _E3 D | C4 z2 G2- | G2 F4 _E2 | %45
w: cen- do _ na- ti-|o- * * ni-|bus Re- gna-|vit, re- gna- *|vit a li- *|gno, a|_ li- gno|
 D2 G4 ^F2 | G8 || !stemless!F2 (!stemless!G2 !stemless!A2) !stemless!B2 | %48
w: De- * *|us.|4.Ar- bor _ de-|
 (!stemless!A2 !stemless!G2) !stemless!F2 !stemless!G2 | %49
w: co- * ra et|
 (!stemless!G2 !stemless!A2 !stemless!G2) !stemless!F2 | (!stemless!E4 !stemless!D4) | %51
w: ful- * * gi-|da, _|
 !stemless!G2 !stemless!G2 !stemless!A2 (!stemless!F2 | %52
w: Or- na- ta Re-|
 !stemless!D2) !stemless!F2 (!stemless!E2 !stemless!F2) | %53
w: * gis pur- *|
 !stemless!D2 (!stemless!C4 !stemless!D4) | !stemless!D2 !stemless!D2 !stemless!F2 (!stemless!D2 | %55
w: pu- ra, _|E- le- cta di-|
 !stemless!C2) !stemless!F2 (!stemless!F2 !stemless!G2 | !stemless!A2) !stemless!G2 (!stemless!G4 | %57
w: * gno sti- *|* pi- te|
 !stemless!F4) | !stemless!F2 (!stemless!F2 !stemless!A2 !stemless!B2 | %59
w: _|Tam san- * *|
 !stemless!A2 !stemless!G2) !stemless!A2 (!stemless!F2 | !stemless!D2) !stemless!F2 (!stemless!E2 | %61
w: * * cta mem-|* bra tan-|
 !stemless!F2) !stemless!D2 (!stemless!C4 | !stemless!D4) ||[M:2/2] A4 B2 A2 | B2 AG ^F3 F | %65
w: * ge- re.|_|5.Be- a- ta,|cu- jus _ bra- chi-|
 ^F2 z2 =B3 B | =B2 (c_B) A3 B | c2 d2 c3 c | B2 B2 A2 A2 | G2 c2 B3 A | G2 G2 ^F4 | z2 A2 B2 A2 | %72
w: is Pre- ti-|um pe- * pen- *|* dit sae- cu-|li: Sta- te- ra|fa- cta cor- *|* po- ris,|Tu- lit- que|
 G2 ^F2 G2 d2 | _e2 d2 c4- | c2 B2 A2 A2 | =B8 || %76
w: prae- * dam Tu-|lit- que prae-|* dam tar- ta-|ri.|
 !stemless!F2 (!stemless!G2 !stemless!A2) !stemless!B2 | %77
w: 6.O crux _ a-|
 (!stemless!A2 !stemless!G2 !stemless!F2) !stemless!G2 | %78
w: ve, _ _ spes|
 (!stemless!G2 !stemless!A2 !stemless!G2) !stemless!F2 | (!stemless!E4 !stemless!D4) | %80
w: u- * * ni-|ca, _|
 !stemless!G2 !stemless!G2 !stemless!A2 (!stemless!F2 | %81
w: Hoc Pas- si- o-|
 !stemless!D2) !stemless!F2 (!stemless!E2 !stemless!F2) | %82
w: * nis tem- *|
 !stemless!D2 (!stemless!C4 !stemless!D4) | !stemless!D2 !stemless!D2 !stemless!F2 (!stemless!D2 | %84
w: po- re _|Pi- is a- dau-|
 !stemless!C2) !stemless!F2 (!stemless!F2 !stemless!G2 | !stemless!A2) !stemless!G2 (!stemless!G4 | %86
w: * ge gra- *|* ti- am,|
 !stemless!F4) | !stemless!F2 (!stemless!F2 !stemless!A2 !stemless!B2 | %88
w: _|Re- is- * *|
 !stemless!A2 !stemless!G2) !stemless!A2 (!stemless!F2 | !stemless!D2) !stemless!F2 (!stemless!E2 | %90
w: * * que de-|* le cri-|
 !stemless!F2) !stemless!D2 (!stemless!C4 | !stemless!D4) ||[M:3/4] ^F2 F2 G2 | A2 c4 | B4 A2 | %95
w: * mi- na.|_|7.Te, fons sa-|lu- tis|Tri- ni-|
 B4 B2 | B4 A2 | z2 (G2 A2) | B2 A3 A | A2 A2 A2 | =B2 B2 (c_B) | A3 A A2 | B2 G4- | G2 ^F4 | %104
w: tas, Col-|lau- det|om- *|nis spi- ri-|tus: Qui- bus|Cru- cis vi- *|cto- ri- am|Lar- gi-|* ris|
 (G2 A2) B2 | A4 G2- | G2 ^F2 F2 | G6 || (G2 c4) | =B6 |] %110
w: ad- * de|ad- de|_ prae- mi-|um.|A- *|men|
V:3
 G,2 G,2 ^F,2 | G,4 F,2- | F,2 _E,3 E, | D,2 D,2 D,2 | _E,2 C,2 B,,2- | B,,2 F,3 F, | B,,4 B,,2- | %7
w: 1.Ve- xil- la|Re- gis|_ prod- e-|unt; Ful- get|Cru- cis my-|* ste- ri-|um, Qua|
 B,,2 D,2 (D,E,) | F,4 ^F,2- | F,2 G,2 G,2 | D,4 D,2- | D,2 D,2 G,2 | C,4 =B,,2 | C,2 F,2 _E,2 | %14
w: _ vi- ta _|mor- tem|_ per- tu-|lit, et|_ mor- te|vi- tam,|et mor- te|
 D,4 (_E,2 | C,2) D,2 D,2 | G,,6 || z8 | z8 | z8 | z8 | z8 | z8 | z10 | z8 | z8 | z8 | z4 | z8 | %29
w: vi- tam|_ pro- tu-|lit.|||||||||||||
 z8 | z8 | z8 | z4 ||[M:2/2] z8 | z8 | z8 | z8 | z8 | z8 | z8 | z8 | z8 | z8 | z8 | z8 | z8 | z8 || %47
w: ||||||||||||||||||
 z8 | z8 | z8 | z8 | z8 | z8 | z10 | z8 | z8 | z8 | z4 | z8 | z8 | z6 | z8 | z4 || %63
w: ||||||||||||||||
[M:2/2] D,4 G,2 ^F,2 | G,2 C,2 D,3 D, | D,4 G,3 G, | G,2 _E,2 F,4- | F,2 B,2 F,3 F, | %68
w: 5.Be- a- ta,|cu- jus bra- chi-|is Pre- ti-|um pe- pen-|* dit sae- cu-|
 B,,2 (D,E,) F,2 F,2 | C,D,_E,F, G,2 F,2 | _E,3 E, D,4 | z4 z2 D,2 | _E,2 D,2 C,2 =B,,2 | %73
w: li: Sta- * te- ra|fa- * * * * cta|cor- po- ris,|Tu-|lit- que prae- dam|
 z2 G,2 _A,3 G, | ^F,2 (G,A,) D,2 F,2 | G,8 || z8 | z8 | z8 | z8 | z8 | z8 | z10 | z8 | z8 | z8 | %86
w: Tu- lit- que|prae- dam _ tar- ta-|ri.|||||||||||
 z4 | z8 | z8 | z6 | z8 | z4 ||[M:3/4] D,2 D,2 G,2 | F,3 _E, D,2 | _E,2 C,3 C, | B,,4 z2 | %96
w: ||||||7.Te, fons sa-|lu- * *|tis Tri- ni-|tas,|
 B,,2 B,,2 F,2 | G,4 ^F,2 | G,2 A,3 A, | D,2 D,2 D,2 | G,2 G,2 _E,2 | F,3 F, F,2 | B,,2 _E,4 | %103
w: Col- lau- det|om- nis|spi- * ri-|tus: Qui- bus|Cru- cis vi-|cto- ri- am|Lar- gi-|
 D,6 | C,4 B,,2 | F,4 G,2 | C,2 D,2 D,2 | G,,6 || C,6 | G,6 |] %110
w: ris|ad- de|ad- de|_ prae- mi-|um.|A-|men|

